_src/static/img/sprite/circles.svg

<svg width="90" height="90" viewBox="0 0 90 90" fill="none" xmlns="http://www.w3.org/2000/svg">
<path d="M62.5842 35.2205L60.5072 33.8283C55.8688 30.8353 50.538 29.2344 44.9995 29.2344C39.4611 29.2344 34.1303 30.8353 29.4919 33.898L27.4149 35.2205L27.3457 32.5058C27.3457 32.2274 27.3457 32.0186 27.3457 31.7402C27.3457 19.768 33.8534 8.90956 44.3765 3.48033L44.9995 3.2019L45.6226 3.48033C56.1457 8.97917 62.6534 19.768 62.6534 31.7402C62.6534 31.949 62.6534 32.1578 62.6534 32.4362L62.5842 35.2205ZM44.9995 26.4502C50.1919 26.4502 55.3149 27.7727 59.8842 30.2785C59.3303 20.1857 53.7226 11.2065 44.9995 6.33415C36.2765 11.2065 30.6688 20.1857 30.1842 30.2785C34.6842 27.7727 39.8072 26.4502 44.9995 26.4502Z" fill="#08AF00"/>
<path d="M31.3614 63.6194C25.3383 63.6194 19.4537 61.8793 14.3306 58.5382L13.7075 58.1206V57.3549C13.9844 46.9141 19.3844 37.3085 28.0383 31.6009L30.1152 30.2087L30.1844 32.7145C30.4614 43.2946 36.4152 52.8305 45.6921 57.6333L48.046 58.8862L45.6921 60.1391C41.1921 62.4361 36.346 63.6194 31.3614 63.6194ZM16.4768 56.5893C20.9768 59.3735 26.0306 60.8352 31.2921 60.8352C35.0306 60.8352 38.5614 60.1391 41.9537 58.747C33.9229 53.5266 28.5921 44.8955 27.5537 35.2899C21.046 40.4408 16.9614 48.167 16.4768 56.5893Z" fill="#08AF00"/>
<path d="M58.6382 63.6194C53.5844 63.6194 48.8075 62.4361 44.3075 60.1391L41.9536 58.8862L44.3075 57.6333C53.5844 52.8305 59.5382 43.225 59.8152 32.7145L59.8844 30.2087L61.9613 31.6009C70.6152 37.3085 75.9459 46.9141 76.2228 57.3549V58.1206L75.5998 58.5382C70.6152 61.8097 64.7305 63.6194 58.6382 63.6194ZM47.9767 58.6774C51.369 60.0695 54.969 60.7656 58.6382 60.7656C63.8998 60.7656 69.0228 59.3039 73.4536 56.5196C72.969 48.0974 68.9536 40.3712 62.3767 35.2203C61.4075 44.8955 56.0767 53.5266 47.9767 58.6774Z" fill="#08AF00"/>
<path d="M44.9995 60.4177L44.3765 60.0697C34.1995 54.7797 27.6919 44.3388 27.3457 32.7147V31.949L27.9688 31.5314C33.0919 28.1903 38.9765 26.4502 44.9995 26.4502C51.0226 26.4502 56.9072 28.1903 62.0303 31.5314L62.6534 31.949V32.7147C62.3072 44.3388 55.7995 54.7797 45.6226 60.0697L44.9995 60.4177ZM30.1842 33.4804C30.738 43.5036 36.3457 52.4827 44.9995 57.2855C53.6534 52.4827 59.2611 43.434 59.8149 33.4804C55.3842 30.6961 50.2611 29.2344 44.9995 29.2344C39.738 29.2344 34.6149 30.6961 30.1842 33.4804Z" fill="#08AF00"/>
<path d="M55.1078 41.2762H52.754V38.4919H55.1078V41.2762ZM49.9155 41.2762H47.1463V38.4919H49.9155V41.2762ZM44.377 41.2762H41.6078V38.4919H44.377V41.2762ZM38.8386 41.2762H36.0693V38.4919H38.8386V41.2762Z" fill="#08AF00"/>
<path d="M31.3615 63.6195C14.0538 63.6195 0 49.3503 0 31.8097C0 14.2691 14.0538 0 31.3615 0C48.6692 0 62.7231 14.2691 62.7231 31.8097C62.6538 49.3503 48.6 63.6195 31.3615 63.6195ZM31.3615 2.78422C15.5769 2.78422 2.76923 15.8005 2.76923 31.8097C2.76923 47.819 15.5769 60.8353 31.3615 60.8353C47.0769 60.8353 59.9538 47.819 59.9538 31.8097C59.8846 15.8005 47.0769 2.78422 31.3615 2.78422Z" fill="#08AF00"/>
<path d="M58.6384 63.6195C41.3307 63.6195 27.2769 49.3503 27.2769 31.8097C27.3461 14.2691 41.3999 0 58.6384 0C75.9461 0 89.9999 14.2691 89.9999 31.8097C89.9999 49.3503 75.9461 63.6195 58.6384 63.6195ZM58.6384 2.78422C42.923 2.78422 30.1153 15.8005 30.1153 31.8097C30.1153 47.819 42.923 60.8353 58.7076 60.8353C74.423 60.8353 87.2999 47.819 87.2999 31.8097C87.2307 15.8005 74.423 2.78422 58.6384 2.78422Z" fill="#08AF00"/>
<path d="M44.9997 90.0001C27.692 90.0001 13.6382 75.7309 13.6382 58.1903C13.6382 40.7193 27.692 26.4502 44.9997 26.4502C62.3074 26.4502 76.3613 40.7193 76.3613 58.2599C76.3613 75.8005 62.3074 90.0001 44.9997 90.0001ZM44.9997 29.2344C29.2843 29.2344 16.4074 42.2507 16.4074 58.2599C16.4074 74.2692 29.2151 87.2855 44.9997 87.2855C60.7151 87.2855 73.592 74.2692 73.592 58.2599C73.592 42.2507 60.7151 29.2344 44.9997 29.2344Z" fill="#08AF00"/>
</svg>

<svg width="90" height="90" fill="none" xmlns="http://www.w3.org/2000/svg"><path d="M62.584 35.22l-2.077-1.392C55.87 30.835 50.538 29.234 45 29.234a27.978 27.978 0 00-15.507 4.664l-2.077 1.322-.07-2.714v-.766c0-11.972 6.508-22.83 17.032-28.26L45 3.202l.624.278c10.523 5.5 17.03 16.288 17.03 28.26v.696l-.069 2.785zM45 26.45a30.978 30.978 0 0114.885 3.829C59.33 20.186 53.723 11.206 45 6.334c-8.723 4.873-14.33 13.852-14.815 23.945A30.514 30.514 0 0145 26.45z" fill="#08AF00"/><path d="M31.361 63.62a31.088 31.088 0 01-17.03-5.082l-.623-.417v-.766c.276-10.44 5.676-20.046 14.33-25.754l2.077-1.392.07 2.506c.276 10.58 6.23 20.115 15.507 24.918l2.354 1.253-2.354 1.253c-4.5 2.297-9.346 3.48-14.33 3.48zm-14.884-7.03c4.5 2.783 9.554 4.245 14.815 4.245 3.739 0 7.27-.696 10.662-2.088-8.031-5.22-13.362-13.852-14.4-23.457a29.319 29.319 0 00-11.077 21.3z" fill="#08AF00"/><path d="M58.638 63.62c-5.054 0-9.83-1.184-14.33-3.48l-2.354-1.254 2.353-1.253c9.277-4.803 15.231-14.408 15.508-24.919l.07-2.505L61.96 31.6c8.654 5.708 13.985 15.313 14.262 25.754v.766l-.623.417a30.922 30.922 0 01-16.962 5.081zm-10.661-4.943a27.985 27.985 0 0010.661 2.089 27.795 27.795 0 0014.816-4.246c-.485-8.423-4.5-16.149-11.077-21.3-.97 9.675-6.3 18.307-14.4 23.457z" fill="#08AF00"/><path d="M45 60.418l-.623-.348c-10.178-5.29-16.685-15.731-17.031-27.355v-.766l.623-.418a31.088 31.088 0 0117.03-5.08c6.024 0 11.908 1.74 17.031 5.08l.623.418v.766C62.307 44.339 55.8 54.78 45.623 60.07l-.623.348zM30.183 33.48C30.738 43.504 36.346 52.483 45 57.286c8.654-4.803 14.262-13.852 14.816-23.806A27.795 27.795 0 0045 29.234a27.795 27.795 0 00-14.815 4.246z" fill="#08AF00"/><path d="M55.108 41.276h-2.354v-2.784h2.354v2.784zm-5.192 0h-2.77v-2.784h2.77v2.784zm-5.539 0h-2.77v-2.784h2.77v2.784zm-5.538 0h-2.77v-2.784h2.77v2.784z" fill="#08AF00"/><path d="M31.361 63.62C14.055 63.62 0 49.35 0 31.81S14.054 0 31.361 0C48.67 0 62.724 14.27 62.724 31.81c-.07 17.54-14.123 31.81-31.361 31.81zm0-60.836C15.577 2.784 2.77 15.801 2.77 31.81s12.808 29.025 28.593 29.025c15.715 0 28.592-13.016 28.592-29.025C59.884 15.8 47.077 2.784 31.36 2.784z" fill="#08AF00"/><path d="M58.638 63.62c-17.307 0-31.361-14.27-31.361-31.81C27.347 14.27 41.4 0 58.638 0 75.946 0 90 14.27 90 31.81S75.946 63.62 58.638 63.62zm0-60.836c-15.715 0-28.523 13.017-28.523 29.026s12.808 29.025 28.593 29.025C74.423 60.835 87.3 47.82 87.3 31.81 87.23 15.8 74.423 2.784 58.638 2.784z" fill="#08AF00"/><path d="M45 90c-17.308 0-31.362-14.27-31.362-31.81 0-17.47 14.054-31.74 31.362-31.74 17.307 0 31.361 14.27 31.361 31.81S62.307 90 45 90zm0-60.766c-15.716 0-28.593 13.017-28.593 29.026 0 16.01 12.808 29.026 28.593 29.026 15.715 0 28.592-13.017 28.592-29.026 0-16.01-12.877-29.026-28.592-29.026z" fill="#08AF00"/></svg>
